assets/images/power.svg

<svg height="40" viewBox="0 0 40 40" width="40" xmlns="http://www.w3.org/2000/svg"><g fill="#1c6afd" fill-rule="evenodd"><rect fill-opacity=".05" height="40" rx="5" width="40"/><path d="m21.495421 10c1.0827404 0 1.9615216.8809471 1.9615216 1.9615176v3.2894477c.0021659 1.0805705-.8787812 1.9615175-1.9615216 1.9615175l-.914421-.0004828v1.768l3.6852816.0008864c.8874566 0 1.6100067.7225502 1.6100067 1.6100067l-.0002883 1.6481069.9029336.0009566c1.0827404 0 1.9615176.8809471 1.9615176 1.9615176v3.2655796c0 1.0805706-.8809471 1.9615176-1.9615176 1.9615176h-3.2655796c-1.0827404 0-1.9615176-.880947-1.9615176-1.9615176v-3.2655796c0-1.0827404.880947-1.9615176 1.9615176-1.9615176l.901646-.0009566.0009992-1.6481069c0-.084623-.0694342-.1518874-.1518874-.1518874h-8.7877724c-.084623 0-.1518874.0694343-.1518874.1518874l-.000452 1.6481069.9030972.0009566c1.0827404 0 1.9615176.8809471 1.9615176 1.9615176v3.2655796c0 1.0805706-.880947 1.9615176-1.9615176 1.9615176h-3.2655796c-1.0827404 0-1.9615176-.880947-1.9615176-1.9615176v-3.2655796c0-1.0827404.8809471-1.9615176 1.9615176-1.9615176l.9044824-.0009566.0003327-1.6481069c0-.8874565.7225502-1.6100067 1.6100067-1.6100067l3.6466606-.0008864v-1.768l-.9148568.0004828c-1.0827403 0-1.9615176-.880947-1.9615176-1.9615175v-3.2894477c0-1.0827404.8809471-1.9615176 1.9615176-1.9615176zm-8.5339034 14.1819458-.0195284 3.2829382 3.285108.0195284c.0108491 0 .0195284-.0086793.0195284-.0195284v-3.2634098zm10.5518364 0-.0195284 3.2829382 3.2829382.0195284c.0108491 0 .0195284-.0086793.0195284-.0195284v-3.2634098zm-5.3052108-12.2399566-.0195284 3.3089761 3.3068062.0195283c.0108491 0 .0195284-.0086792.0195284-.0195283v-3.2894477z" fill-rule="nonzero" opacity=".5"/></g></svg>

<?xml version="1.0" encoding="UTF-8"?>
<svg width="40px" height="40px" viewBox="0 0 40 40" version="1.1" xmlns="http://www.w3.org/2000/svg" xmlns:xlink="http://www.w3.org/1999/xlink">
    <title>编组 5</title>
    <g id="20220814" stroke="none" stroke-width="1" fill="none" fill-rule="evenodd">
        <g id="切图" transform="translate(-39.000000, -144.000000)" fill="#1C6AFD">
            <g id="编组-5" transform="translate(39.000000, 144.000000)">
                <rect id="矩形" fill-opacity="0.05" x="0" y="0" width="40" height="40" rx="5"></rect>
                <path d="M21.495421,10 C22.5781614,10 23.4569426,10.8809471 23.4569426,11.9615176 L23.4569426,15.2509653 C23.4591085,16.3315358 22.5781614,17.2124828 21.495421,17.2124828 L20.581,17.212 L20.581,18.98 L24.2662816,18.9808864 C25.1537382,18.9808864 25.8762883,19.7034366 25.8762883,20.5908931 L25.876,22.239 L26.7789336,22.2399566 C27.861674,22.2399566 28.7404512,23.1209037 28.7404512,24.2014742 L28.7404512,27.4670538 C28.7404512,28.5476244 27.8595041,29.4285714 26.7789336,29.4285714 L23.513354,29.4285714 C22.4306136,29.4285714 21.5518364,28.5476244 21.5518364,27.4670538 L21.5518364,24.2014742 C21.5518364,23.1187338 22.4327834,22.2399566 23.513354,22.2399566 L24.415,22.239 L24.4159992,20.5908931 C24.4159992,20.5062701 24.346565,20.4390057 24.2641118,20.4390057 L15.4763394,20.4390057 C15.3917164,20.4390057 15.324452,20.50844 15.324452,20.5908931 L15.324,22.239 L16.2270972,22.2399566 C17.3098376,22.2399566 18.1886148,23.1209037 18.1886148,24.2014742 L18.1886148,27.4670538 C18.1886148,28.5476244 17.3076678,29.4285714 16.2270972,29.4285714 L12.9615176,29.4285714 C11.8787772,29.4285714 11,28.5476244 11,27.4670538 L11,24.2014742 C11,23.1187338 11.8809471,22.2399566 12.9615176,22.2399566 L13.866,22.239 L13.8663327,20.5908931 C13.8663327,19.7034366 14.5888829,18.9808864 15.4763394,18.9808864 L19.123,18.98 L19.123,17.212 L18.2081432,17.2124828 C17.1254029,17.2124828 16.2466256,16.3315358 16.2466256,15.2509653 L16.2466256,11.9615176 C16.2466256,10.8787772 17.1275727,10 18.2081432,10 L21.495421,10 Z M12.9615176,24.1819458 L12.9419892,27.464884 L16.2270972,27.4844124 C16.2379463,27.4844124 16.2466256,27.4757331 16.2466256,27.464884 L16.2466256,24.2014742 L12.9615176,24.1819458 Z M23.513354,24.1819458 L23.4938256,27.464884 L26.7767638,27.4844124 C26.7876129,27.4844124 26.7962922,27.4757331 26.7962922,27.464884 L26.7962922,24.2014742 L23.513354,24.1819458 Z M18.2081432,11.9419892 L18.1886148,15.2509653 L21.495421,15.2704936 C21.5062701,15.2704936 21.5149494,15.2618144 21.5149494,15.2509653 L21.5149494,11.9615176 L18.2081432,11.9419892 Z" id="形状结合" fill-rule="nonzero" opacity="0.5"></path>
            </g>
        </g>
    </g>
</svg>
